X:1
T:Untitled 1 (Fenian)
M:4/4
L:1/4
K:G
 b b e3/2 f/2| e d3/2 e/2 g3/2| a/2 b d'/2 b3/2 b| b e3/2 f/2 e| d3/2 e/2 g3/2 a/2|\
 b d'/2 b2 b/2| b e'3/2 e'/2 e'2| e/2f/2 g3/2 a/2 g| f/2 d3/2 e/2f/2 g2|\
 a/2b/2 d'2 b/2a/2| b e e e2| b b e3/2 f/2| e d3/2 e/2 g3/2| a/2 b d'/2 b3/2 b|\
 b e3/2 f/2 e| d3/2 e/2 g3/2 a/2| b d'/2 b2 b/2| b e'3/2 e'/2 e'2|\
 e/2f/2 g3/2 a/2 g| f/2 d3/2 e/2f/2 g2| a/2b/2 d'2 b/2a/2| b e e e2|\
 b b e3/2 f/2| e d3/2 e/2 g3/2| a/2 b d'/2 b3/2 b| b e3/2 f/2 e| d3/2 e/2 g3/2 a/2|\
 b d'/2 b2 b/2| b e'3/2 e'/2 e'2| e/2f/2 g3/2 a/2 g| f/2 d3/2 e/2f/2 g2|\
 a/2b/2 d'2 b/2a/2| b e e e2-| e4-| z4| z4| z4|
